images/refitted_not_drinking_spring.svg

<?xml version="1.0" encoding="UTF-8" standalone="no"?>
<svg xmlns:dc="http://purl.org/dc/elements/1.1/" xmlns:cc="http://creativecommons.org/ns#" xmlns:rdf="http://www.w3.org/1999/02/22-rdf-syntax-ns#" xmlns:svg="http://www.w3.org/2000/svg" xmlns="http://www.w3.org/2000/svg" xmlns:sodipodi="http://sodipodi.sourceforge.net/DTD/sodipodi-0.dtd" xmlns:inkscape="http://www.inkscape.org/namespaces/inkscape" width="16" height="16" viewBox="0 0 4.2333334 4.2333334" version="1.1" id="svg8" inkscape:version="1.0.1 (3bc2e813f5, 2020-09-07)" sodipodi:docname="refitted_not_drinking_spring.svg">
  <defs id="defs2" />
  <sodipodi:namedview id="base" pagecolor="#ffffff" bordercolor="#666666" borderopacity="1.0" inkscape:pageopacity="0.0" inkscape:pageshadow="2" inkscape:zoom="28.963094" inkscape:cx="2.4646684" inkscape:cy="11.799107" inkscape:document-units="mm" inkscape:current-layer="svg8" showgrid="true" inkscape:window-width="1847" inkscape:window-height="1056" inkscape:window-x="0" inkscape:window-y="0" inkscape:window-maximized="1" inkscape:pagecheckerboard="true" units="px" inkscape:document-rotation="0">
    <inkscape:grid type="xygrid" id="grid1407" units="px" spacingx="0.26458333" spacingy="0.26458333" snapvisiblegridlinesonly="false" enabled="true" originx="0.26458334" originy="0.26458334" />
  </sodipodi:namedview>
  <metadata id="metadata5">
    <rdf:RDF>
      <cc:Work rdf:about="">
        <dc:format>image/svg+xml</dc:format>
        <dc:type rdf:resource="http://purl.org/dc/dcmitype/StillImage" />
        <dc:title></dc:title>
      </cc:Work>
    </rdf:RDF>
  </metadata>
  <path style="fill:none;fill-rule:evenodd;stroke:#ffffff;stroke-width:1.05833333;stroke-linecap:round;stroke-linejoin:round;stroke-miterlimit:4;stroke-dasharray:none;stroke-opacity:0.5" d="M 0.26458334,1.0582111 L 2.1166667,-0.52928889 L 3.96875,1.0582111" id="path2113" sodipodi:nodetypes="ccc" />
  <ellipse style="fill:none;stroke:#ffffff;stroke-width:0.79375;stroke-linejoin:round;stroke-miterlimit:4;stroke-dasharray:none;stroke-opacity:0.49696496" id="ellipse2111" cx="3.3072917" cy="3.0427079" rx="0.66145837" ry="0.66145796" />
  <path sodipodi:nodetypes="cscscscsccscc" inkscape:connector-curvature="0" id="path1367" d="M 2.1219524,0.6136447 C 1.6433306,0.6136447 1.2553191,1.0074939 1.2553191,1.4933111 C 1.2553191,1.5943276 1.272322,1.6912554 1.3031971,1.7816104 C 0.84798307,2.3251682 1.1158842,2.5553553 1.2181405,2.8895923 C 1.3220831,3.2293411 0.95120126,3.4335918 0.66585734,3.7041666 C 1.5211142,3.5492356 1.662808,3.1505301 1.6393083,2.9317867 C 1.6132722,2.6894325 1.4194369,2.5285702 1.6708888,2.2445005 C 1.8181205,2.2920845 1.956712,2.3729312 2.1219579,2.3729312 C 2.216402,2.3729312 2.3073217,2.3576339 2.3924264,2.3293576 C 2.4719966,2.3028426 2.5464881,2.2649244 2.6140223,2.2176054 C 2.8403126,2.0588863 2.9885618,1.793746 2.9885618,1.4934131 C 2.9885618,1.0075958 2.6005779,0.61376523 2.1219579,0.61376523 Z" style="opacity:0.5;fill:#0064ff;fill-opacity:1;fill-rule:nonzero;stroke:#fdfdfd;stroke-width:0.79375;stroke-linecap:round;stroke-linejoin:round;stroke-miterlimit:4;stroke-dasharray:none;stroke-dashoffset:0;stroke-opacity:1" />
  <path style="opacity:1;fill:#0064ff;fill-opacity:1;fill-rule:nonzero;stroke:none;stroke-width:0.264583;stroke-linecap:round;stroke-linejoin:round;stroke-miterlimit:4;stroke-dasharray:none;stroke-dashoffset:0;stroke-opacity:0.501961" d="M 2.1219524,0.6136447 C 1.6433306,0.6136447 1.2553191,1.0074939 1.2553191,1.4933111 C 1.2553191,1.5943276 1.272322,1.6912554 1.3031971,1.7816104 C 0.84798307,2.3251682 1.1158842,2.5553553 1.2181405,2.8895923 C 1.3220831,3.2293411 0.95120126,3.4335918 0.66585734,3.7041666 C 1.5211142,3.5492356 1.662808,3.1505301 1.6393083,2.9317867 C 1.6132722,2.6894325 1.4194369,2.5285702 1.6708888,2.2445005 C 1.8181205,2.2920845 1.956712,2.3729312 2.1219579,2.3729312 C 2.216402,2.3729312 2.3073217,2.3576339 2.3924264,2.3293576 C 2.4719966,2.3028426 2.5464881,2.2649244 2.6140223,2.2176054 C 2.8403126,2.0588863 2.9885618,1.793746 2.9885618,1.4934131 C 2.9885618,1.0075958 2.6005779,0.61376523 2.1219579,0.61376523 Z" id="path4747" inkscape:connector-curvature="0" sodipodi:nodetypes="cscscscsccscc" />
  <path style="fill:none;fill-rule:evenodd;stroke:#000000;stroke-width:0.264583;stroke-linecap:butt;stroke-linejoin:miter;stroke-miterlimit:4;stroke-dasharray:none;stroke-opacity:1" d="M 0.26458334,1.0582111 L 2.1166667,-0.52928889 L 3.96875,1.0582111" id="path840" sodipodi:nodetypes="ccc" />
  <ellipse style="fill:#ff0000;stroke:none;stroke-width:0.132292;stroke-linejoin:round;stroke-miterlimit:4;stroke-dasharray:none;stroke-opacity:1;fill-opacity:1" id="path2109" cx="3.3072917" cy="3.0427079" rx="0.66145837" ry="0.66145796" />
</svg>

<svg xmlns="http://www.w3.org/2000/svg" width="16" height="16" viewBox="0 0 4.233 4.233">
    <path d="M.265 1.058L2.117-.529l1.852 1.587" fill="none" stroke="#fff" stroke-width="1.058" stroke-linecap="round" stroke-linejoin="round" stroke-opacity=".5"/>
    <circle cx="3.307" cy="3.043" fill="none" stroke="#fff" stroke-width=".794" stroke-linejoin="round" stroke-opacity=".497" r=".661"/>
    <path d="M2.122.614a.873.873 0 00-.867.88.89.89 0 00.048.288c-.455.543-.187.773-.085 1.108.104.34-.267.544-.552.814.855-.155.997-.553.973-.772-.026-.243-.22-.403.032-.687.147.047.286.128.451.128a.856.856 0 00.492-.155.882.882 0 00.375-.725.873.873 0 00-.867-.88z" opacity=".5" fill="#0064ff" stroke="#fdfdfd" stroke-width=".794" stroke-linecap="round" stroke-linejoin="round"/>
    <path d="M2.122.614a.873.873 0 00-.867.88.89.89 0 00.048.288c-.455.543-.187.773-.085 1.108.104.34-.267.544-.552.814.855-.155.997-.553.973-.772-.026-.243-.22-.403.032-.687.147.047.286.128.451.128a.856.856 0 00.492-.155.882.882 0 00.375-.725.873.873 0 00-.867-.88z" fill="#0064ff"/>
    <path d="M.265 1.058L2.117-.529l1.852 1.587" fill="none" stroke="#000" stroke-width=".265"/>
    <circle cx="3.307" cy="3.043" fill="red" r=".661"/>
</svg>
